X:1
T:George S. Forbes of Aslown's
T:George S. Forbes of Aslown's
T:Alexander Walker
C:Alexander Walker
L:1/8
M:2/2
K:Bb
V:1 treble 
V:1
 .D.C | B,2 B2 FBDB | C2 c2 [CG]cEc | FdEc DBDB, | C2 C2 C2 DC | B,2 B2 FBDB | C2 c2 [CG]cEc | %7
 egfe dBcA |O .B2 .B2 .B2 :: a | bfdf Bfdf | gBaB babf | egec dfdB |1 c2 c2 c2 (3fga | bfdf Bfdf | %15
 gBad bagf | edcB FecA | B2 B2 B2 :|2 BAGF EDCB, | Dfdf Bfdf | gdad bgec | BAGF EGFE | D2 C2 B,3 || %23

